; generated by Slic3r 1.2.9 on 2016-02-26 at 21:10:10

; external perimeters extrusion width = 0.30mm
; perimeters extrusion width = 0.30mm
; infill extrusion width = 0.30mm
; solid infill extrusion width = 0.30mm
; top infill extrusion width = 0.30mm

M107
M190 S57 ; set bed temperature
G28				 				; home all axes (if axis shifting bug is fixed!)
G32               							; execute bed Z-plane  compensation at bed.g 4 points
G10 P0 X-16 Y-3 Z0.0 S-273 R-273    	; set extruder x,y offsets
M83                                     				; set extruder to relative mode
G10 P0 S195 R160           				; Set tool 0 operating and standby temperatures
T0                                         				; select tool ZERO




G21 ; set units to millimeters
G90 ; use absolute coordinates
M83 ; use relative distances for extrusion
G1 Z0.300 F9000.000
G1 E-3.50000 F2400.00000
G1 X55.945 Y55.945 F9000.000
G1 E3.50000 F2400.00000
G1 X56.467 Y55.432 E0.03979 F1200.000
G1 X57.409 Y54.610 E0.06788
G1 X58.225 Y53.977 E0.05615
G1 X59.255 Y53.269 E0.06787
G1 X60.516 Y52.523 E0.07960
G1 X61.631 Y51.963 E0.06785
G1 X62.780 Y51.473 E0.06786
G1 X63.753 Y51.123 E0.05617
G1 X64.951 Y50.768 E0.06787
G1 X66.168 Y50.489 E0.06787
G1 X67.401 Y50.286 E0.06786
G1 X68.859 Y50.149 E0.07959
G1 X69.892 Y50.116 E0.05615
G1 X71.141 Y50.149 E0.06788
G1 X72.599 Y50.286 E0.07959 F1200.000
G1 X73.832 Y50.489 E0.06785
G1 X74.840 Y50.714 E0.05615
G1 X76.247 Y51.123 E0.07957
G1 X77.420 Y51.552 E0.06789
G1 X78.563 Y52.054 E0.06786
G1 X79.484 Y52.523 E0.05615
G1 X80.563 Y53.154 E0.06789
G1 X81.775 Y53.977 E0.07958
G1 X82.758 Y54.748 E0.06787
G1 X83.533 Y55.431 E0.05615
G1 X84.569 Y56.467 E0.07958
G1 X85.390 Y57.409 E0.06788
G1 X86.023 Y58.225 E0.05615
G1 X86.731 Y59.255 E0.06787
G1 X87.477 Y60.516 E0.07960
G1 X87.946 Y61.437 E0.05615
G1 X88.448 Y62.580 E0.06785
G1 X88.877 Y63.753 E0.06789
G1 X89.286 Y65.160 E0.07958
G1 X89.511 Y66.168 E0.05615
G1 X89.714 Y67.401 E0.06786
G1 X89.838 Y68.644 E0.06789
G1 X89.884 Y70.108 E0.07959
G1 X89.851 Y71.141 E0.05615
G1 X89.741 Y72.385 E0.06786
G1 X89.552 Y73.620 E0.06788
G1 X89.232 Y75.049 E0.07958
G1 X88.944 Y76.042 E0.05615
G1 X88.527 Y77.219 E0.06786
G1 X88.037 Y78.369 E0.06789
G1 X87.372 Y79.674 E0.07958
G1 X86.846 Y80.563 E0.05615
G1 X86.158 Y81.589 E0.06710
G1 X85.390 Y82.591 E0.06864
G1 X84.421 Y83.690 E0.07959
G1 X83.690 Y84.421 E0.05615
G1 X82.758 Y85.252 E0.06786
G1 X81.600 Y86.150 E0.07958
G1 X80.745 Y86.731 E0.05617
G1 X79.674 Y87.372 E0.06786
G1 X78.369 Y88.037 E0.07958
G1 X77.219 Y88.527 E0.06789
G1 X76.042 Y88.944 E0.06786
G1 X75.049 Y89.232 E0.05615
G1 X73.620 Y89.552 E0.07958
G1 X72.385 Y89.741 E0.06788
G1 X71.356 Y89.838 E0.05616
G1 X70.108 Y89.884 E0.06785
G1 X68.859 Y89.851 E0.06788
G1 X67.401 Y89.714 E0.07959
G1 X66.380 Y89.552 E0.05615
G1 X65.160 Y89.286 E0.06786
G1 X63.753 Y88.877 E0.07958
G1 X62.781 Y88.527 E0.05616
G1 X61.631 Y88.037 E0.06788
G1 X60.326 Y87.372 E0.07959
G1 X59.437 Y86.846 E0.05615
G1 X58.400 Y86.150 E0.06786
G1 X57.409 Y85.390 E0.06787
G1 X56.467 Y84.569 E0.06788
G1 X55.431 Y83.533 E0.07958
G1 X54.610 Y82.591 E0.06788
G1 X53.977 Y81.775 E0.05615
G1 X53.269 Y80.745 E0.06787
G1 X52.523 Y79.484 E0.07960
G1 X52.054 Y78.564 E0.05615
G1 X51.558 Y77.433 E0.06709
G1 X51.123 Y76.247 E0.06866
G1 X50.714 Y74.840 E0.07957
G1 X50.489 Y73.832 E0.05615
G1 X50.289 Y72.613 E0.06710
G1 X50.162 Y71.356 E0.06866
G1 X50.116 Y69.892 E0.07958
G1 X50.149 Y68.859 E0.05615
G1 X50.259 Y67.615 E0.06785
G1 X50.448 Y66.380 E0.06789
G1 X50.768 Y64.951 E0.07958
G1 X51.123 Y63.753 E0.06787
G1 X51.473 Y62.780 E0.05617
G1 X52.054 Y61.436 E0.07956
G1 X52.628 Y60.326 E0.06789
G1 X53.154 Y59.437 E0.05615
G1 X53.850 Y58.400 E0.06786
G1 X54.748 Y57.242 E0.07960
G1 X55.432 Y56.467 E0.05615
G1 X55.913 Y55.976 E0.03734
G1 E-3.50000 F2400.00000
G1 X58.519 Y58.582 F9000.000
G1 E3.50000 F2400.00000
G1 X58.910 Y58.191 E0.03009 F900.000
G1 X59.674 Y57.518 E0.05529
G1 X60.478 Y56.894 E0.05529
G1 X61.320 Y56.322 E0.05529
G1 X62.196 Y55.804 E0.05530
G1 X63.102 Y55.342 E0.05529
G1 X64.036 Y54.938 E0.05530
G1 X64.994 Y54.593 E0.05529
G1 X65.971 Y54.309 E0.05530
G1 X66.964 Y54.087 E0.05529
G1 X67.970 Y53.928 E0.05529
G1 X68.982 Y53.832 E0.05527
G1 X70.065 Y53.802 E0.05884
G1 X71.017 Y53.832 E0.05176
G1 X72.030 Y53.928 E0.05529 F900.000
G1 X73.036 Y54.087 E0.05529
G1 X74.029 Y54.309 E0.05529
G1 X75.006 Y54.593 E0.05530
G1 X75.964 Y54.938 E0.05529
G1 X76.898 Y55.342 E0.05530
G1 X77.804 Y55.804 E0.05529
G1 X78.680 Y56.322 E0.05530
G1 X79.522 Y56.894 E0.05529
G1 X80.337 Y57.527 E0.05605
G1 X81.090 Y58.191 E0.05454
G1 X81.809 Y58.910 E0.05530
G1 X82.482 Y59.674 E0.05529
G1 X83.106 Y60.478 E0.05529
G1 X83.678 Y61.320 E0.05529
G1 X84.196 Y62.196 E0.05530
G1 X84.658 Y63.102 E0.05529
G1 X85.062 Y64.036 E0.05530
G1 X85.407 Y64.994 E0.05529
G1 X85.687 Y65.958 E0.05454
G1 X85.913 Y66.965 E0.05605
G1 X86.072 Y67.970 E0.05529
G1 X86.168 Y68.983 E0.05529
G1 X86.200 Y70.000 E0.05529
G1 X86.168 Y71.017 E0.05529
G1 X86.073 Y72.017 E0.05454
G1 X85.913 Y73.036 E0.05605
G1 X85.691 Y74.029 E0.05529
G1 X85.407 Y75.006 E0.05529
G1 X85.062 Y75.964 E0.05529
G1 X84.658 Y76.898 E0.05530
G1 X84.196 Y77.804 E0.05529
G1 X83.678 Y78.680 E0.05530
G1 X83.106 Y79.522 E0.05529
G1 X82.491 Y80.315 E0.05454
G1 X81.809 Y81.090 E0.05605
G1 X81.090 Y81.809 E0.05529
G1 X80.326 Y82.482 E0.05529
G1 X79.511 Y83.114 E0.05605
G1 X78.680 Y83.678 E0.05454
G1 X77.804 Y84.196 E0.05530
G1 X76.898 Y84.658 E0.05529
G1 X75.964 Y85.062 E0.05530
G1 X75.006 Y85.407 E0.05529
G1 X74.029 Y85.691 E0.05529
G1 X73.036 Y85.913 E0.05529
G1 X72.030 Y86.072 E0.05529
G1 X71.017 Y86.168 E0.05529
G1 X70.000 Y86.200 E0.05529
G1 X68.983 Y86.168 E0.05529
G1 X67.970 Y86.072 E0.05529
G1 X66.965 Y85.913 E0.05529
G1 X65.958 Y85.687 E0.05605
G1 X64.994 Y85.407 E0.05454
G1 X64.036 Y85.062 E0.05529
G1 X63.102 Y84.658 E0.05530
G1 X62.196 Y84.196 E0.05529
G1 X61.320 Y83.678 E0.05530
G1 X60.478 Y83.106 E0.05529
G1 X59.674 Y82.482 E0.05529
G1 X58.910 Y81.809 E0.05529
G1 X58.191 Y81.090 E0.05530
G1 X57.527 Y80.337 E0.05454
G1 X56.894 Y79.522 E0.05605
G1 X56.322 Y78.680 E0.05529
G1 X55.804 Y77.804 E0.05530
G1 X55.342 Y76.898 E0.05529
G1 X54.943 Y75.976 E0.05454
G1 X54.593 Y75.006 E0.05605
G1 X54.309 Y74.029 E0.05529
G1 X54.087 Y73.036 E0.05529
G1 X53.928 Y72.030 E0.05529
G1 X53.832 Y71.017 E0.05529
G1 X53.800 Y70.000 E0.05529
G1 X53.832 Y68.983 E0.05529
G1 X53.928 Y67.970 E0.05529
G1 X54.087 Y66.964 E0.05529
G1 X54.309 Y65.971 E0.05529
G1 X54.593 Y64.994 E0.05530
G1 X54.938 Y64.036 E0.05529
G1 X55.342 Y63.102 E0.05530
G1 X55.804 Y62.196 E0.05529
G1 X56.322 Y61.320 E0.05530
G1 X56.886 Y60.489 E0.05454
G1 X57.518 Y59.674 E0.05605
G1 X58.191 Y58.910 E0.05529
G1 X58.487 Y58.614 E0.02276
G1 X54.800 Y74.689 F9000.000
G1 X65.311 Y85.200 E0.81479 F900.000
G1 X66.183 Y85.450 E0.04972
G1 X54.549 Y73.816 E0.90187
G1 X54.370 Y73.016 E0.04496
G1 X66.984 Y85.630 E0.97786
G1 X67.733 Y85.758 E0.04167
G1 X54.242 Y72.267 E1.04585
G1 X54.151 Y71.554 E0.03939
G1 X68.446 Y85.849 E1.10817
G1 X69.130 Y85.912 E0.03766
G1 X54.088 Y70.870 E1.16605
G1 X54.068 Y70.228 E0.03519
G1 X69.772 Y85.932 E1.21736
G1 X70.394 Y85.932 E0.03410
G1 X54.068 Y69.606 E1.26564
G1 X54.087 Y69.003 E0.03305
G1 X70.997 Y85.913 E1.31088
G1 X71.570 Y85.865 E0.03153
G1 X54.135 Y68.430 E1.35155
G1 X54.192 Y67.866 E0.03111
G1 X72.134 Y85.808 E1.39091
G1 X72.671 Y85.723 E0.02978
G1 X54.277 Y67.329 E1.42592
G1 X54.370 Y66.800 E0.02943
G1 X73.200 Y85.630 E1.45972
G1 X73.708 Y85.517 E0.02853
G1 X54.483 Y66.292 E1.49030
G1 X54.606 Y65.794 E0.02815
G1 X74.206 Y85.394 E1.51942
G1 X74.688 Y85.254 E0.02749
G1 X54.746 Y65.312 E1.54590
G1 X54.895 Y64.840 E0.02716
G1 X75.160 Y85.105 E1.57097
G1 X75.617 Y84.940 E0.02663
G1 X55.060 Y64.383 E1.59364
G1 X55.232 Y63.933 E0.02638
G1 X76.067 Y84.768 E1.61516
G1 X76.501 Y84.581 E0.02591
G1 X55.419 Y63.499 E1.63423
G1 X55.612 Y63.070 E0.02578
G1 X76.930 Y84.388 E1.65257
G1 X77.341 Y84.178 E0.02533
G1 X55.822 Y62.659 E1.66823
G1 X56.033 Y62.248 E0.02530
G1 X77.752 Y83.967 E1.68369
G1 X78.142 Y83.736 E0.02487
G1 X56.264 Y61.858 E1.69606
G1 X56.495 Y61.467 E0.02487
G1 X78.533 Y83.505 E1.70842
G1 X78.906 Y83.257 E0.02457
G1 X56.743 Y61.094 E1.71804
G1 X56.995 Y60.724 E0.02453
G1 X79.276 Y83.005 E1.72723
G1 X79.633 Y82.740 E0.02435
G1 X57.260 Y60.367 E1.73436
G1 X57.531 Y60.017 E0.02428
G1 X79.983 Y82.469 E1.74049
G1 X80.325 Y82.190 E0.02422
G1 X57.810 Y59.675 E1.74540
G1 X58.101 Y59.344 E0.02414
G1 X80.656 Y81.899 E1.74843
G1 X80.969 Y81.591 E0.02409
G1 X58.409 Y59.031 E1.74887
G1 X58.720 Y58.720 E0.02409
G1 X81.280 Y81.280 E1.74887
G1 X81.591 Y80.969 E0.02409
G1 X59.031 Y58.409 E1.74887
G1 X59.344 Y58.101 E0.02409
G1 X81.898 Y80.655 E1.74841
G1 X82.189 Y80.325 E0.02414
G1 X59.675 Y57.810 E1.74536
G1 X60.017 Y57.531 E0.02421
G1 X82.469 Y79.983 E1.74052
G1 X82.741 Y79.633 E0.02428
G1 X60.367 Y57.259 E1.73443
G1 X60.724 Y56.995 E0.02436
G1 X83.005 Y79.276 E1.72723
G1 X83.256 Y78.906 E0.02453
G1 X61.094 Y56.744 E1.71804
G1 X61.467 Y56.495 E0.02457
G1 X83.505 Y78.533 E1.70843
G1 X83.736 Y78.142 E0.02487
G1 X61.858 Y56.264 E1.69606
G1 X62.248 Y56.033 E0.02487
G1 X83.967 Y77.752 E1.68369
G1 X84.178 Y77.341 E0.02530
G1 X62.659 Y55.822 E1.66823
G1 X63.070 Y55.612 E0.02533
G1 X84.388 Y76.930 E1.65257
G1 X84.581 Y76.501 E0.02578
G1 X63.499 Y55.419 E1.63423
G1 X63.933 Y55.232 E0.02591
G1 X84.768 Y76.067 E1.61516
G1 X84.940 Y75.617 E0.02638
G1 X64.383 Y55.060 E1.59365
G1 X64.840 Y54.895 E0.02662
G1 X85.105 Y75.160 E1.57097
G1 X85.254 Y74.688 E0.02716
G1 X65.312 Y54.746 E1.54590
G1 X65.794 Y54.606 E0.02749
G1 X85.394 Y74.206 E1.51942
G1 X85.517 Y73.708 E0.02815
G1 X66.292 Y54.483 E1.49030
G1 X66.800 Y54.370 E0.02853
G1 X85.630 Y73.200 E1.45972
G1 X85.723 Y72.671 E0.02944
G1 X67.329 Y54.277 E1.42590
G1 X67.866 Y54.192 E0.02978
G1 X85.807 Y72.134 E1.39086
G1 X85.865 Y71.570 E0.03107
G1 X68.430 Y54.135 E1.35156
G1 X69.004 Y54.087 E0.03155
G1 X85.913 Y70.997 E1.31085
G1 X85.932 Y70.394 E0.03305
G1 X69.609 Y54.070 E1.26544
G1 X70.228 Y54.068 E0.03396
G1 X85.932 Y69.772 E1.21737
G1 X85.912 Y69.130 E0.03519
G1 X70.870 Y54.088 E1.16605
G1 X71.554 Y54.151 E0.03765
G1 X85.849 Y68.446 E1.10817
G1 X85.758 Y67.733 E0.03938
G1 X72.267 Y54.242 E1.04586
G1 X73.016 Y54.370 E0.04166
G1 X85.630 Y66.984 E0.97786
G1 X85.450 Y66.183 E0.04502
G1 X73.816 Y54.549 E0.90187
G1 X74.689 Y54.800 E0.04980
G1 X85.200 Y65.311 E0.81480
G1 X84.863 Y64.352 F9000.000
G1 X75.648 Y55.137 E0.71436 F900.000
G1 X76.743 Y55.611 F9000.000
G1 X84.389 Y63.257 E0.59271 F900.000
G1 X83.650 Y61.896 F9000.000
G1 X78.104 Y56.350 E0.42993 F900.000
G1 X80.518 Y58.143 F9000.000
G1 X81.857 Y59.482 E0.10378 F900.000
G1 X64.352 Y84.863 F9000.000
G1 X55.138 Y75.649 E0.71426 F900.000
G1 X55.611 Y76.743 F9000.000
G1 X63.257 Y84.389 E0.59270 F900.000
G1 X61.896 Y83.650 F9000.000
G1 X56.350 Y78.104 E0.42991 F900.000
G1 X58.143 Y80.519 F9000.000
G1 X59.481 Y81.857 E0.10372 F900.000
G1 Z0.500 F9000.000
G1 X59.189 Y82.188 F9000.000
G1 X58.842 Y81.882 E0.00989 F1800.000
G1 X58.118 Y81.158 E0.02189
G1 X57.441 Y80.390 E0.02189
G1 X56.813 Y79.581 E0.02189
G1 X56.238 Y78.734 E0.02189
G1 X55.716 Y77.853 E0.02189
G1 X55.251 Y76.940 E0.02189
G1 X54.848 Y76.007 E0.02174
G1 X54.498 Y75.037 E0.02204
G1 X54.212 Y74.054 E0.02189
G1 X53.989 Y73.054 E0.02189
G1 X53.829 Y72.043 E0.02189
G1 X53.732 Y71.023 E0.02189
G1 X53.700 Y70.000 E0.02189
G1 X53.732 Y68.977 E0.02189
G1 X53.829 Y67.957 E0.02189
G1 X53.989 Y66.946 E0.02189
G1 X54.212 Y65.946 E0.02189
G1 X54.498 Y64.963 E0.02189
G1 X54.845 Y64.000 E0.02189
G1 X55.251 Y63.060 E0.02189
G1 X55.716 Y62.147 E0.02189
G1 X56.238 Y61.266 E0.02189
G1 X56.813 Y60.419 E0.02189
G1 X57.441 Y59.610 E0.02189
G1 X58.118 Y58.842 E0.02189
G1 X58.842 Y58.118 E0.02189
G1 X59.641 Y57.416 E0.02274
G1 X60.419 Y56.813 E0.02104
G1 X61.266 Y56.238 E0.02189
G1 X62.147 Y55.716 E0.02189
G1 X63.060 Y55.251 E0.02189
G1 X64.000 Y54.845 E0.02189
G1 X64.963 Y54.498 E0.02189
G1 X65.946 Y54.212 E0.02189
G1 X66.946 Y53.989 E0.02189
G1 X67.957 Y53.829 E0.02189
G1 X68.976 Y53.732 E0.02189
G1 X70.040 Y53.701 E0.02274
G1 X71.023 Y53.732 E0.02104
G1 X72.043 Y53.829 E0.02189 F1800.000
G1 X73.054 Y53.989 E0.02189
G1 X74.054 Y54.212 E0.02189
G1 X75.037 Y54.498 E0.02189
G1 X76.000 Y54.845 E0.02189
G1 X76.940 Y55.251 E0.02189
G1 X77.853 Y55.716 E0.02189
G1 X78.734 Y56.238 E0.02189
G1 X79.581 Y56.813 E0.02189
G1 X80.390 Y57.441 E0.02189
G1 X81.158 Y58.118 E0.02189
G1 X81.882 Y58.842 E0.02189
G1 X82.559 Y59.610 E0.02189
G1 X83.187 Y60.419 E0.02189
G1 X83.762 Y61.266 E0.02189
G1 X84.284 Y62.147 E0.02189
G1 X84.749 Y63.060 E0.02189
G1 X85.155 Y64.000 E0.02189
G1 X85.502 Y64.963 E0.02189
G1 X85.788 Y65.946 E0.02189
G1 X86.011 Y66.946 E0.02189
G1 X86.171 Y67.957 E0.02189
G1 X86.268 Y68.977 E0.02189
G1 X86.300 Y70.000 E0.02189
G1 X86.268 Y71.023 E0.02189
G1 X86.171 Y72.043 E0.02189
G1 X86.011 Y73.054 E0.02189
G1 X85.788 Y74.054 E0.02189
G1 X85.502 Y75.037 E0.02189
G1 X85.155 Y76.000 E0.02189
G1 X84.749 Y76.940 E0.02189
G1 X84.284 Y77.853 E0.02189
G1 X83.762 Y78.734 E0.02189
G1 X83.187 Y79.581 E0.02189
G1 X82.559 Y80.390 E0.02189
G1 X81.882 Y81.158 E0.02189
G1 X81.158 Y81.882 E0.02189
G1 X80.390 Y82.559 E0.02189
G1 X79.581 Y83.187 E0.02189
G1 X78.734 Y83.762 E0.02189
G1 X77.853 Y84.284 E0.02189
G1 X76.940 Y84.749 E0.02189
G1 X76.000 Y85.155 E0.02189
G1 X75.037 Y85.502 E0.02189
G1 X74.054 Y85.788 E0.02189
G1 X73.054 Y86.011 E0.02189
G1 X72.043 Y86.171 E0.02189
G1 X71.023 Y86.268 E0.02189
G1 X70.000 Y86.300 E0.02189
G1 X68.977 Y86.268 E0.02189
G1 X67.957 Y86.171 E0.02189
G1 X66.946 Y86.011 E0.02189
G1 X65.946 Y85.788 E0.02189
G1 X64.963 Y85.502 E0.02189
G1 X64.000 Y85.155 E0.02189
G1 X63.060 Y84.749 E0.02189
G1 X62.147 Y84.284 E0.02189
G1 X61.266 Y83.762 E0.02189
G1 X60.419 Y83.187 E0.02189
G1 X59.610 Y82.559 E0.02189
G1 X59.223 Y82.218 E0.01104
G1 E-3.50000 F2400.00000
G1 X75.328 Y85.221 F9000.000
G1 E3.50000 F2400.00000
G1 X85.221 Y75.328 E0.29921 F1800.000
G1 X85.410 Y74.775 F9000.000
G1 X74.775 Y85.410 E0.32162 F1800.000
G1 X74.262 Y85.559 E0.01142
G1 X85.559 Y74.262 E0.34163
G1 X85.691 Y73.767 E0.01096
G1 X73.767 Y85.691 E0.36059
G1 X73.299 Y85.795 E0.01026
G1 X85.795 Y73.299 E0.37792
G1 X85.890 Y72.841 E0.01000
G1 X72.841 Y85.890 E0.39464
G1 X72.408 Y85.958 E0.00936
G1 X85.958 Y72.408 E0.40978
G1 X86.027 Y71.976 E0.00936
G1 X71.976 Y86.027 E0.42492
G1 X71.574 Y86.066 E0.00865
G1 X86.066 Y71.574 E0.43827
G1 X86.104 Y71.172 E0.00863
G1 X71.172 Y86.104 E0.45156
G1 X70.782 Y86.130 E0.00835
G1 X86.130 Y70.782 E0.46412
G1 X86.141 Y70.407 E0.00803
G1 X70.407 Y86.141 E0.47584
G1 X70.031 Y86.153 E0.00803
G1 X86.153 Y70.031 E0.48755
G1 X86.147 Y69.674 E0.00765
G1 X69.674 Y86.147 E0.49819
G1 X69.321 Y86.136 E0.00754
G1 X86.136 Y69.321 E0.50852
G1 X86.125 Y68.968 E0.00754
G1 X68.968 Y86.125 E0.51885
G1 X68.634 Y86.096 E0.00718
G1 X86.096 Y68.634 E0.52807
G1 X86.064 Y68.302 E0.00714
G1 X68.302 Y86.064 E0.53717
G1 X67.970 Y86.033 E0.00714
G1 X86.033 Y67.970 E0.54627
G1 X85.985 Y67.653 E0.00684
G1 X67.653 Y85.985 E0.55440
G1 X67.339 Y85.936 E0.00680
G1 X85.936 Y67.339 E0.56239
G1 X85.886 Y67.025 E0.00680
G1 X67.025 Y85.886 E0.57038
G1 X66.723 Y85.825 E0.00660
G1 X85.825 Y66.723 E0.57767
G1 X85.758 Y66.426 E0.00651
G1 X66.426 Y85.758 E0.58465
G1 X66.128 Y85.692 E0.00651
G1 X85.692 Y66.128 E0.59163
G1 X85.620 Y65.837 E0.00642
G1 X65.837 Y85.620 E0.59827
G1 X65.555 Y85.538 E0.00628
G1 X85.538 Y65.555 E0.60431
G1 X85.456 Y65.273 E0.00628
G1 X65.273 Y85.456 E0.61036
G1 X64.991 Y85.374 E0.00628
G1 X85.374 Y64.991 E0.61641
G1 X85.279 Y64.723 E0.00609
G1 X64.723 Y85.279 E0.62165
G1 X64.455 Y85.183 E0.00608
G1 X85.183 Y64.455 E0.62682
G1 X85.086 Y64.188 E0.00608
G1 X64.188 Y85.086 E0.63200
G1 X63.926 Y84.985 E0.00602
G1 X84.985 Y63.926 E0.63688
G1 X84.875 Y63.672 E0.00591
G1 X63.672 Y84.875 E0.64123
G1 X63.418 Y84.765 E0.00591
G1 X84.765 Y63.418 E0.64559
G1 X84.655 Y63.164 E0.00591
G1 X63.164 Y84.655 E0.64994
G1 X62.919 Y84.536 E0.00582
G1 X84.536 Y62.919 E0.65374
G1 X84.414 Y62.678 E0.00578
G1 X62.678 Y84.414 E0.65732
G1 X62.437 Y84.291 E0.00578
