; generated by Slic3r 1.2.9 on 2016-03-29 at 00:24:58

; external perimeters extrusion width = 0.30mm
; perimeters extrusion width = 0.30mm
; infill extrusion width = 0.30mm
; solid infill extrusion width = 0.30mm
; top infill extrusion width = 0.30mm

M107
M190 S57 ; set bed temperature
G28								; home all axes (if axis shifting bug is fixed!)
G32								; execute bed Z-plane  compensation at bed.g 4 points
G10 P0 X-16 Y-3 Z0.0 S-273 R-273		; set extruder x,y offsets
M83								; set extruder to relative mode
G10 P0 S195 R160					; Set tool 0 operating and standby temperatures
T0									; select tool ZERO




G21 ; set units to millimeters
G90 ; use absolute coordinates
M83 ; use relative distances for extrusion
G1 E-3.50000 F2400.00000
G1 Z0.300 F9000.000
G1 X40.039 Y40.039 F9000.000
G1 E3.50000 F2400.00000
G1 X40.659 Y39.418 E0.04770 F1200.000
G1 X41.320 Y38.797 E0.04924
G1 X42.637 Y37.636 E0.09540
G1 X43.336 Y37.058 E0.04931
G1 X44.724 Y35.981 E0.09541
G1 X45.457 Y35.449 E0.04924
G1 X46.910 Y34.461 E0.09547
G1 X47.675 Y33.976 E0.04919
G1 X49.154 Y33.101 E0.09336
G1 X49.981 Y32.645 E0.05129
G1 X51.546 Y31.848 E0.09545
G1 X52.367 Y31.462 E0.04931
G1 X53.978 Y30.764 E0.09540
G1 X54.819 Y30.431 E0.04910
G1 X56.473 Y29.836 E0.09552
G1 X57.336 Y29.555 E0.04932
G1 X59.022 Y29.066 E0.09541
G1 X59.899 Y28.840 E0.04918
G1 X61.614 Y28.457 E0.09548
G1 X62.504 Y28.287 E0.04922
G1 X64.239 Y28.013 E0.09543
G1 X65.138 Y27.899 E0.04926
G1 X66.887 Y27.734 E0.09544
G1 X67.791 Y27.677 E0.04923
G1 X69.546 Y27.622 E0.09540
G1 X70.465 Y27.622 E0.04992
G1 X72.209 Y27.677 E0.09479 F1200.000
G1 X73.113 Y27.734 E0.04924
G1 X74.861 Y27.899 E0.09541
G1 X75.761 Y28.013 E0.04929
G1 X77.496 Y28.287 E0.09543
G1 X78.386 Y28.457 E0.04923
G1 X80.100 Y28.840 E0.09542
G1 X80.977 Y29.065 E0.04921
G1 X82.664 Y29.555 E0.09544
G1 X83.527 Y29.836 E0.04932
G1 X85.180 Y30.431 E0.09542
G1 X86.020 Y30.764 E0.04914
G1 X87.598 Y31.447 E0.09342
G1 X88.454 Y31.848 E0.05131
G1 X90.019 Y32.645 E0.09547
G1 X90.823 Y33.087 E0.04983
G1 X92.325 Y33.976 E0.09484
G1 X93.090 Y34.461 E0.04923
G1 X94.542 Y35.448 E0.09540
G1 X95.275 Y35.981 E0.04920
G1 X96.634 Y37.034 E0.09342
G1 X97.363 Y37.636 E0.05137
G1 X98.680 Y38.797 E0.09540
G1 X99.341 Y39.418 E0.04924
G1 X100.574 Y40.651 E0.09477
G1 X101.203 Y41.320 E0.04988
G1 X102.365 Y42.638 E0.09550
G1 X102.942 Y43.336 E0.04921
G1 X104.011 Y44.715 E0.09477
G1 X104.552 Y45.458 E0.04992
G1 X105.539 Y46.910 E0.09541
G1 X106.024 Y47.675 E0.04923
G1 X106.918 Y49.187 E0.09540
G1 X107.355 Y49.981 E0.04928
G1 X108.148 Y51.538 E0.09491
G1 X108.538 Y52.367 E0.04980
G1 X109.236 Y53.978 E0.09540
G1 X109.569 Y54.821 E0.04922
G1 X110.160 Y56.462 E0.09477
G1 X110.445 Y57.336 E0.04995
G1 X110.934 Y59.022 E0.09542
G1 X111.160 Y59.900 E0.04924
G1 X111.543 Y61.614 E0.09540
G1 X111.713 Y62.504 E0.04925
G1 X111.987 Y64.238 E0.09540
G1 X112.101 Y65.139 E0.04930
G1 X112.266 Y66.887 E0.09540
G1 X112.323 Y67.791 E0.04924
G1 X112.378 Y69.546 E0.09540
G1 X112.378 Y70.454 E0.04931
G1 X112.323 Y72.209 E0.09541
G1 X112.266 Y73.113 E0.04923
G1 X112.101 Y74.861 E0.09540
G1 X111.987 Y75.762 E0.04930
G1 X111.713 Y77.496 E0.09540
G1 X111.543 Y78.386 E0.04925
G1 X111.171 Y80.050 E0.09262
G1 X110.934 Y80.978 E0.05204
G1 X110.445 Y82.664 E0.09540
G1 X110.164 Y83.527 E0.04932
G1 X109.569 Y85.179 E0.09540
G1 X109.236 Y86.022 E0.04922
G1 X108.538 Y87.634 E0.09545
G1 X108.152 Y88.454 E0.04925
G1 X107.355 Y90.019 E0.09540
G1 X106.918 Y90.813 E0.04928
G1 X106.024 Y92.325 E0.09542
G1 X105.539 Y93.090 E0.04922
G1 X104.551 Y94.543 E0.09544
G1 X104.018 Y95.276 E0.04925
G1 X102.973 Y96.623 E0.09264
G1 X102.364 Y97.363 E0.05207
G1 X101.202 Y98.680 E0.09542
G1 X100.582 Y99.341 E0.04922
G1 X99.341 Y100.582 E0.09540
G1 X98.680 Y101.203 E0.04924
G1 X97.363 Y102.364 E0.09540
G1 X96.664 Y102.942 E0.04931
G1 X95.276 Y104.019 E0.09541
G1 X94.543 Y104.551 E0.04924
G1 X93.090 Y105.539 E0.09546
G1 X92.325 Y106.024 E0.04922
G1 X90.813 Y106.918 E0.09540
G1 X90.019 Y107.355 E0.04928
G1 X88.454 Y108.152 E0.09541
G1 X87.634 Y108.538 E0.04925
G1 X86.022 Y109.236 E0.09545
G1 X85.179 Y109.569 E0.04922
G1 X83.527 Y110.164 E0.09540
G1 X82.664 Y110.445 E0.04932
G1 X80.977 Y110.935 E0.09544
G1 X80.100 Y111.160 E0.04922
G1 X78.386 Y111.543 E0.09541
G1 X77.496 Y111.713 E0.04921
G1 X75.762 Y111.987 E0.09543
G1 X74.861 Y112.101 E0.04930
G1 X73.113 Y112.266 E0.09540
G1 X72.210 Y112.323 E0.04920
G1 X70.454 Y112.378 E0.09544
G1 X69.546 Y112.378 E0.04931
G1 X67.791 Y112.323 E0.09540
G1 X66.887 Y112.266 E0.04924
G1 X65.139 Y112.101 E0.09540
G1 X64.238 Y111.987 E0.04930
G1 X62.504 Y111.713 E0.09540
G1 X61.616 Y111.543 E0.04916
G1 X59.900 Y111.160 E0.09550
G1 X59.022 Y110.934 E0.04926
G1 X57.336 Y110.445 E0.09540
G1 X56.464 Y110.161 E0.04983
G1 X54.821 Y109.569 E0.09488
G1 X53.978 Y109.236 E0.04922
G1 X52.367 Y108.538 E0.09540
G1 X51.538 Y108.148 E0.04980
G1 X49.981 Y107.355 E0.09491
G1 X49.187 Y106.918 E0.04928
G1 X47.675 Y106.024 E0.09542
G1 X46.910 Y105.539 E0.04922
G1 X45.458 Y104.552 E0.09540
G1 X44.726 Y104.020 E0.04916
G1 X43.336 Y102.942 E0.09553
G1 X42.638 Y102.364 E0.04927
G1 X41.320 Y101.202 E0.09547
G1 X40.659 Y100.582 E0.04922
G1 X39.454 Y99.377 E0.09262
G1 X38.797 Y98.680 E0.05202
G1 X37.636 Y97.362 E0.09544
G1 X37.058 Y96.664 E0.04927
G1 X35.981 Y95.276 E0.09541
G1 X35.448 Y94.542 E0.04928
G1 X34.461 Y93.089 E0.09546
G1 X33.976 Y92.325 E0.04919
G1 X33.081 Y90.812 E0.09546
G1 X32.645 Y90.019 E0.04921
G1 X31.853 Y88.465 E0.09477
G1 X31.462 Y87.633 E0.04994
G1 X30.764 Y86.020 E0.09550
G1 X30.431 Y85.179 E0.04912
G1 X29.836 Y83.527 E0.09541
G1 X29.555 Y82.664 E0.04931
G1 X29.066 Y80.978 E0.09540
G1 X28.840 Y80.100 E0.04926
G1 X28.457 Y78.386 E0.09540
G1 X28.287 Y77.496 E0.04925
G1 X28.013 Y75.762 E0.09540
G1 X27.899 Y74.861 E0.04930
G1 X27.734 Y73.113 E0.09540
G1 X27.677 Y72.209 E0.04923
G1 X27.622 Y70.453 E0.09543
G1 X27.622 Y69.546 E0.04929
G1 X27.677 Y67.791 E0.09540
G1 X27.734 Y66.887 E0.04924
G1 X27.899 Y65.139 E0.09540
G1 X28.013 Y64.238 E0.04930
G1 X28.287 Y62.504 E0.09541
G1 X28.457 Y61.614 E0.04924
G1 X28.840 Y59.899 E0.09546
G1 X29.066 Y59.022 E0.04920
G1 X29.541 Y57.385 E0.09262
G1 X29.836 Y56.473 E0.05210
G1 X30.431 Y54.820 E0.09545
G1 X30.764 Y53.978 E0.04917
G1 X31.461 Y52.367 E0.09540
G1 X31.848 Y51.546 E0.04931
G1 X32.645 Y49.981 E0.09545
G1 X33.082 Y49.187 E0.04923
G1 X33.976 Y47.675 E0.09540
G1 X34.461 Y46.910 E0.04924
G1 X35.449 Y45.457 E0.09542
G1 X35.982 Y44.724 E0.04927
G1 X37.051 Y43.345 E0.09480
G1 X37.636 Y42.637 E0.04991
G1 X38.797 Y41.320 E0.09540
G1 X39.418 Y40.659 E0.04924
G1 X40.007 Y40.070 E0.04526
G1 E-3.50000 F2400.00000
G1 X56.772 Y56.835 F9000.000
G1 E3.50000 F2400.00000
G1 X57.218 Y56.389 E0.03431 F900.000
G1 X58.098 Y55.613 E0.06373
G1 X59.025 Y54.894 E0.06373
G1 X59.995 Y54.235 E0.06373
G1 X61.005 Y53.638 E0.06373
G1 X62.050 Y53.105 E0.06373
G1 X63.126 Y52.639 E0.06373
G1 X64.221 Y52.245 E0.06318
G1 X65.356 Y51.915 E0.06426
G1 X66.501 Y51.659 E0.06375
G1 X67.660 Y51.475 E0.06373
G1 X68.828 Y51.365 E0.06373
G1 X69.990 Y51.329 E0.06318 F900.000
G1 X71.172 Y51.365 E0.06426
G1 X72.340 Y51.475 E0.06375
G1 X73.499 Y51.659 E0.06373
G1 X74.643 Y51.915 E0.06373
G1 X75.760 Y52.239 E0.06318
G1 X76.873 Y52.639 E0.06426
G1 X77.950 Y53.105 E0.06375
G1 X78.995 Y53.638 E0.06373
G1 X80.006 Y54.235 E0.06378
G1 X80.996 Y54.911 E0.06515
G1 X81.902 Y55.613 E0.06226
G1 X82.782 Y56.389 E0.06375
G1 X83.618 Y57.226 E0.06427
G1 X84.387 Y58.098 E0.06318
G1 X85.106 Y59.025 E0.06373
G1 X85.765 Y59.995 E0.06373
G1 X86.363 Y61.006 E0.06379
G1 X86.909 Y62.083 E0.06561
G1 X87.361 Y63.126 E0.06180
G1 X87.758 Y64.230 E0.06373
G1 X88.085 Y65.357 E0.06373
G1 X88.341 Y66.501 E0.06373
G1 X88.525 Y67.660 E0.06373
G1 X88.635 Y68.828 E0.06373
G1 X88.672 Y70.000 E0.06373
G1 X88.635 Y71.172 E0.06373
G1 X88.525 Y72.340 E0.06373
G1 X88.341 Y73.499 E0.06373
G1 X88.085 Y74.644 E0.06375
G1 X87.755 Y75.779 E0.06426
G1 X87.361 Y76.874 E0.06318
G1 X86.895 Y77.950 E0.06373
G1 X86.362 Y78.995 E0.06373
G1 X85.765 Y80.005 E0.06373
G1 X85.106 Y80.975 E0.06373
G1 X84.387 Y81.902 E0.06373
G1 X83.611 Y82.782 E0.06373
G1 X82.782 Y83.611 E0.06374
G1 X81.902 Y84.387 E0.06373
G1 X80.983 Y85.100 E0.06318
G1 X80.005 Y85.765 E0.06426
G1 X78.995 Y86.362 E0.06375
G1 X77.950 Y86.895 E0.06373
G1 X76.874 Y87.361 E0.06373
G1 X75.770 Y87.758 E0.06373
G1 X74.643 Y88.085 E0.06373
G1 X73.499 Y88.341 E0.06373
G1 X72.340 Y88.525 E0.06373
G1 X71.172 Y88.635 E0.06373
G1 X70.000 Y88.672 E0.06373
G1 X68.828 Y88.635 E0.06373
G1 X67.660 Y88.525 E0.06373
G1 X66.501 Y88.341 E0.06373
G1 X65.357 Y88.085 E0.06373
G1 X64.230 Y87.758 E0.06373
G1 X63.126 Y87.361 E0.06373
G1 X62.059 Y86.899 E0.06318
G1 X61.005 Y86.362 E0.06427
G1 X59.995 Y85.765 E0.06375
G1 X59.025 Y85.106 E0.06373
G1 X58.098 Y84.387 E0.06373
G1 X57.218 Y83.611 E0.06373
G1 X56.389 Y82.782 E0.06374
G1 X55.613 Y81.902 E0.06373
G1 X54.894 Y80.975 E0.06373
G1 X54.235 Y80.005 E0.06373
G1 X53.638 Y78.995 E0.06373
G1 X53.105 Y77.950 E0.06373
G1 X52.639 Y76.873 E0.06379
G1 X52.232 Y75.736 E0.06561
G1 X51.915 Y74.643 E0.06180
G1 X51.659 Y73.499 E0.06373
G1 X51.475 Y72.340 E0.06373
G1 X51.365 Y71.172 E0.06373
G1 X51.328 Y70.000 E0.06375
G1 X51.366 Y68.818 E0.06426
G1 X51.475 Y67.660 E0.06318
G1 X51.659 Y66.501 E0.06373
G1 X51.915 Y65.357 E0.06373
G1 X52.242 Y64.230 E0.06373
G1 X52.639 Y63.126 E0.06373
G1 X53.105 Y62.050 E0.06373
G1 X53.638 Y61.005 E0.06373
G1 X54.235 Y59.994 E0.06379
G1 X54.916 Y58.997 E0.06560
G1 X55.613 Y58.098 E0.06180
G1 X56.389 Y57.218 E0.06373
G1 X56.740 Y56.867 E0.02698
G1 X57.048 Y57.175 F9000.000
G1 X57.517 Y56.706 E0.03601 F900.000
G1 X58.376 Y55.949 E0.06225
G1 X59.281 Y55.247 E0.06224
G1 X60.229 Y54.603 E0.06224
G1 X61.215 Y54.020 E0.06225
G1 X62.236 Y53.500 E0.06225
G1 X63.287 Y53.045 E0.06224
G1 X64.355 Y52.660 E0.06170
G1 X65.465 Y52.337 E0.06278
G1 X66.583 Y52.087 E0.06225
G1 X67.714 Y51.908 E0.06224
G1 X68.855 Y51.800 E0.06225
G1 X69.990 Y51.764 E0.06170 F900.000
G1 X71.145 Y51.800 E0.06278
G1 X72.286 Y51.908 E0.06226
G1 X73.417 Y52.087 E0.06224
G1 X74.535 Y52.337 E0.06224
G1 X75.626 Y52.654 E0.06170
G1 X76.713 Y53.045 E0.06278
G1 X77.764 Y53.500 E0.06225
G1 X78.785 Y54.020 E0.06225
G1 X79.772 Y54.603 E0.06227
G1 X80.740 Y55.263 E0.06367
G1 X81.624 Y55.949 E0.06079
G1 X82.484 Y56.707 E0.06226
G1 X83.300 Y57.524 E0.06278
G1 X84.051 Y58.376 E0.06170
G1 X84.753 Y59.281 E0.06224
G1 X85.397 Y60.229 E0.06224
G1 X85.981 Y61.215 E0.06228
G1 X86.514 Y62.268 E0.06412
G1 X86.955 Y63.287 E0.06033
G1 X87.343 Y64.365 E0.06224
G1 X87.663 Y65.465 E0.06224
G1 X87.913 Y66.583 E0.06224
G1 X88.092 Y67.714 E0.06224
G1 X88.200 Y68.855 E0.06225
G1 X88.236 Y70.000 E0.06224
G1 X88.200 Y71.145 E0.06224
G1 X88.092 Y72.286 E0.06225
G1 X87.913 Y73.417 E0.06224
G1 X87.663 Y74.535 E0.06225
G1 X87.340 Y75.645 E0.06278
G1 X86.955 Y76.713 E0.06170
G1 X86.500 Y77.764 E0.06224
G1 X85.980 Y78.785 E0.06225
G1 X85.397 Y79.771 E0.06225
G1 X84.753 Y80.719 E0.06224
G1 X84.051 Y81.624 E0.06224
G1 X83.294 Y82.483 E0.06225
G1 X82.483 Y83.294 E0.06225
G1 X81.624 Y84.051 E0.06225
G1 X80.727 Y84.747 E0.06170
G1 X79.771 Y85.397 E0.06277
G1 X78.785 Y85.980 E0.06226
G1 X77.764 Y86.500 E0.06225
G1 X76.713 Y86.955 E0.06224
G1 X75.635 Y87.343 E0.06224
G1 X74.535 Y87.663 E0.06224
G1 X73.417 Y87.913 E0.06224
G1 X72.286 Y88.092 E0.06224
G1 X71.145 Y88.200 E0.06224
G1 X70.000 Y88.236 E0.06224
G1 X68.855 Y88.200 E0.06224
G1 X67.714 Y88.092 E0.06225
G1 X66.583 Y87.913 E0.06224
G1 X65.465 Y87.663 E0.06224
G1 X64.365 Y87.343 E0.06224
G1 X63.287 Y86.955 E0.06224
G1 X62.245 Y86.504 E0.06170
G1 X61.215 Y85.980 E0.06278
G1 X60.229 Y85.397 E0.06226
G1 X59.281 Y84.753 E0.06224
G1 X58.376 Y84.051 E0.06224
G1 X57.517 Y83.294 E0.06225
G1 X56.706 Y82.483 E0.06225
G1 X55.949 Y81.624 E0.06225
G1 X55.247 Y80.719 E0.06224
G1 X54.603 Y79.771 E0.06224
G1 X54.020 Y78.785 E0.06225
G1 X53.500 Y77.764 E0.06225
G1 X53.044 Y76.713 E0.06228
G1 X52.647 Y75.601 E0.06412
G1 X52.337 Y74.535 E0.06033
G1 X52.087 Y73.417 E0.06224
G1 X51.908 Y72.286 E0.06224
G1 X51.800 Y71.145 E0.06225
G1 X51.764 Y70.000 E0.06225
G1 X51.801 Y68.845 E0.06278
G1 X51.908 Y67.714 E0.06170
G1 X52.087 Y66.583 E0.06224
G1 X52.337 Y65.465 E0.06224
G1 X52.657 Y64.365 E0.06224
G1 X53.045 Y63.287 E0.06224
G1 X53.500 Y62.236 E0.06224
G1 X54.020 Y61.215 E0.06225
G1 X54.603 Y60.228 E0.06228
G1 X55.268 Y59.253 E0.06411
G1 X55.949 Y58.376 E0.06033
G1 X56.706 Y57.517 E0.06225
G1 X57.016 Y57.207 E0.02379
G1 X57.324 Y57.515 F9000.000
G1 X57.815 Y57.024 E0.03771 F900.000
G1 X58.654 Y56.285 E0.06076
G1 X59.537 Y55.599 E0.06076
G1 X60.462 Y54.971 E0.06075
G1 X61.425 Y54.402 E0.06076
G1 X62.421 Y53.894 E0.06076
G1 X63.447 Y53.450 E0.06076
G1 X64.490 Y53.074 E0.06022
G1 X65.573 Y52.759 E0.06129
G1 X66.665 Y52.515 E0.06076
G1 X67.769 Y52.340 E0.06076
G1 X68.882 Y52.235 E0.06076
G1 X69.990 Y52.200 E0.06022 F900.000
G1 X71.118 Y52.235 E0.06129
G1 X72.231 Y52.340 E0.06076
G1 X73.335 Y52.515 E0.06076
G1 X74.427 Y52.759 E0.06076
G1 X75.491 Y53.068 E0.06022
G1 X76.553 Y53.450 E0.06129
G1 X77.579 Y53.894 E0.06076
G1 X78.575 Y54.402 E0.06076
G1 X79.538 Y54.971 E0.06077
G1 X80.484 Y55.616 E0.06218
G1 X81.346 Y56.285 E0.05932
G1 X82.185 Y57.024 E0.06076
G1 X82.982 Y57.822 E0.06129
G1 X83.715 Y58.654 E0.06022
G1 X84.401 Y59.537 E0.06076
G1 X85.029 Y60.462 E0.06075
G1 X85.599 Y61.425 E0.06077
G1 X86.120 Y62.453 E0.06263
G1 X86.550 Y63.447 E0.05887
G1 X86.929 Y64.499 E0.06076
G1 X87.241 Y65.573 E0.06076
G1 X87.485 Y66.665 E0.06076
G1 X87.660 Y67.769 E0.06076
G1 X87.765 Y68.882 E0.06076
G1 X87.800 Y70.000 E0.06076
G1 X87.765 Y71.118 E0.06076
G1 X87.660 Y72.231 E0.06076
G1 X87.485 Y73.335 E0.06076
G1 X87.241 Y74.427 E0.06076
G1 X86.926 Y75.510 E0.06129
G1 X86.550 Y76.553 E0.06022
G1 X86.106 Y77.579 E0.06076
G1 X85.598 Y78.575 E0.06076
G1 X85.029 Y79.538 E0.06076
G1 X84.401 Y80.463 E0.06075
G1 X83.715 Y81.346 E0.06076
G1 X82.976 Y82.185 E0.06076
G1 X82.185 Y82.976 E0.06076
G1 X81.346 Y83.715 E0.06076
G1 X80.470 Y84.395 E0.06022
G1 X79.538 Y85.029 E0.06128
G1 X78.575 Y85.598 E0.06076
G1 X77.579 Y86.106 E0.06076
G1 X76.553 Y86.550 E0.06076
G1 X75.501 Y86.929 E0.06076
G1 X74.427 Y87.241 E0.06076
G1 X73.335 Y87.485 E0.06076
G1 X72.231 Y87.660 E0.06076
G1 X71.118 Y87.765 E0.06076
G1 X70.000 Y87.800 E0.06076
G1 X68.882 Y87.765 E0.06076
G1 X67.769 Y87.660 E0.06076
G1 X66.665 Y87.485 E0.06076
G1 X65.573 Y87.241 E0.06076
G1 X64.499 Y86.929 E0.06076
G1 X63.447 Y86.550 E0.06076
G1 X62.430 Y86.110 E0.06022
G1 X61.425 Y85.598 E0.06129
G1 X60.462 Y85.029 E0.06076
G1 X59.537 Y84.401 E0.06075
G1 X58.654 Y83.715 E0.06076
G1 X57.815 Y82.976 E0.06076
G1 X57.024 Y82.185 E0.06076
G1 X56.285 Y81.346 E0.06076
G1 X55.599 Y80.463 E0.06076
G1 X54.971 Y79.538 E0.06075
G1 X54.402 Y78.575 E0.06076
G1 X53.894 Y77.579 E0.06076
G1 X53.450 Y76.552 E0.06077
G1 X53.061 Y75.467 E0.06263
G1 X52.759 Y74.427 E0.05887
G1 X52.515 Y73.335 E0.06076
G1 X52.340 Y72.231 E0.06076
G1 X52.235 Y71.118 E0.06076
G1 X52.200 Y70.000 E0.06076
G1 X52.236 Y68.872 E0.06129
G1 X52.340 Y67.769 E0.06022
G1 X52.515 Y66.665 E0.06076
G1 X52.759 Y65.573 E0.06076
G1 X53.071 Y64.499 E0.06076
G1 X53.450 Y63.447 E0.06076
G1 X53.894 Y62.421 E0.06076
G1 X54.402 Y61.425 E0.06076
G1 X54.971 Y60.462 E0.06077
G1 X55.621 Y59.510 E0.06263
G1 X56.285 Y58.654 E0.05887
G1 X57.024 Y57.815 E0.06076
G1 X57.292 Y57.547 E0.02060
G1 X57.246 Y57.225 F9000.000
G1 X50.665 Y51.413 F9000.000
G1 X51.635 Y50.443 E0.07452 F900.000
G1 X52.899 Y49.328 E0.09157
G1 X54.231 Y48.296 E0.09157
G1 X55.625 Y47.348 E0.09158
G1 X57.075 Y46.490 E0.09157
G1 X58.577 Y45.725 E0.09157
G1 X60.124 Y45.056 E0.09157
G1 X61.710 Y44.485 E0.09157
G1 X63.328 Y44.015 E0.09157
G1 X64.973 Y43.647 E0.09157
G1 X66.638 Y43.383 E0.09157
G1 X68.315 Y43.225 E0.09156
G1 X70.011 Y43.172 E0.09220
G1 X71.685 Y43.225 E0.09095
G1 X73.362 Y43.383 E0.09157 F900.000
G1 X75.027 Y43.647 E0.09157
G1 X76.672 Y44.015 E0.09157
G1 X78.290 Y44.485 E0.09157
G1 X79.876 Y45.056 E0.09157
G1 X81.423 Y45.725 E0.09156
G1 X82.934 Y46.496 E0.09220
G1 X84.375 Y47.348 E0.09095
G1 X85.769 Y48.296 E0.09158
G1 X87.101 Y49.328 E0.09157
