; generated by Slic3r 1.2.9 on 2016-03-29 at 12:55:51

; external perimeters extrusion width = 0.30mm
; perimeters extrusion width = 0.30mm
; infill extrusion width = 0.30mm
; solid infill extrusion width = 0.30mm
; top infill extrusion width = 0.30mm

M107
M190 S57 ; set bed temperature
G28								; home all axes (if axis shifting bug is fixed!)
G32								; execute bed Z-plane  compensation at bed.g 4 points
G10 P0 X-16 Y-3 Z0.0 S-273 R-273		; set extruder x,y offsets
M83								; set extruder to relative mode
G10 P0 S195 R160					; Set tool 0 operating and standby temperatures
T0									; select tool ZERO




G21 ; set units to millimeters
G90 ; use absolute coordinates
M83 ; use relative distances for extrusion
G1 E-3.50000 F2400.00000
G1 Z0.300 F9000.000
G1 X42.867 Y42.867 F9000.000
G1 E3.50000 F2400.00000
G1 X43.965 Y41.798 E0.08329 F1200.000
G1 X45.282 Y40.637 E0.09540
G1 X45.788 Y40.219 E0.03561
G1 X47.175 Y39.142 E0.09543
G1 X47.706 Y38.757 E0.03561
G1 X49.158 Y37.770 E0.09542
G1 X49.721 Y37.413 E0.03620
G1 X51.223 Y36.525 E0.09480
G1 X51.797 Y36.209 E0.03559
G1 X53.362 Y35.412 E0.09543
G1 X53.955 Y35.133 E0.03565
G1 X55.567 Y34.435 E0.09540
G1 X56.176 Y34.194 E0.03558
G1 X57.828 Y33.599 E0.09541
G1 X58.452 Y33.397 E0.03565
G1 X60.138 Y32.907 E0.09540
G1 X60.772 Y32.744 E0.03556
G1 X62.486 Y32.361 E0.09545
G1 X63.130 Y32.238 E0.03560
G1 X64.864 Y31.963 E0.09540
G1 X65.515 Y31.881 E0.03564
G1 X67.263 Y31.716 E0.09540
G1 X67.917 Y31.675 E0.03559
G1 X69.672 Y31.620 E0.09540
G1 X70.339 Y31.620 E0.03622
G1 X72.083 Y31.675 E0.09483 F1200.000
G1 X72.737 Y31.716 E0.03559
G1 X74.485 Y31.881 E0.09540
G1 X75.136 Y31.963 E0.03564
G1 X76.870 Y32.238 E0.09540
G1 X77.514 Y32.361 E0.03561
G1 X79.227 Y32.744 E0.09540
G1 X79.862 Y32.907 E0.03559
G1 X81.548 Y33.397 E0.09542
G1 X82.172 Y33.599 E0.03562
G1 X83.824 Y34.194 E0.09544
G1 X84.432 Y34.435 E0.03553
G1 X86.045 Y35.133 E0.09545
G1 X86.638 Y35.412 E0.03565
G1 X88.203 Y36.209 E0.09540
G1 X88.777 Y36.525 E0.03562
G1 X90.289 Y37.419 E0.09540
G1 X90.842 Y37.770 E0.03560
G1 X92.294 Y38.757 E0.09540
G1 X92.825 Y39.142 E0.03563
G1 X94.212 Y40.218 E0.09540
G1 X94.717 Y40.636 E0.03558
G1 X96.035 Y41.798 E0.09546
G1 X96.512 Y42.246 E0.03560
G1 X97.754 Y43.488 E0.09540
G1 X98.202 Y43.965 E0.03560
G1 X99.364 Y45.283 E0.09543
G1 X99.782 Y45.788 E0.03561
G1 X100.851 Y47.167 E0.09482
G1 X101.243 Y47.706 E0.03622
G1 X102.230 Y49.158 E0.09540
G1 X102.581 Y49.711 E0.03560
G1 X103.475 Y51.223 E0.09540
G1 X103.791 Y51.797 E0.03562
G1 X104.583 Y53.351 E0.09477
G1 X104.867 Y53.955 E0.03628
G1 X105.565 Y55.567 E0.09540
G1 X105.806 Y56.176 E0.03558
G1 X106.397 Y57.817 E0.09478
G1 X106.603 Y58.452 E0.03628
G1 X107.093 Y60.138 E0.09540
G1 X107.256 Y60.773 E0.03561
G1 X107.640 Y62.489 E0.09553
G1 X107.762 Y63.130 E0.03548
G1 X108.037 Y64.864 E0.09540
G1 X108.119 Y65.515 E0.03564
G1 X108.284 Y67.263 E0.09540
G1 X108.325 Y67.917 E0.03560
G1 X108.380 Y69.672 E0.09540
G1 X108.380 Y70.328 E0.03565
G1 X108.325 Y72.083 E0.09540
G1 X108.284 Y72.737 E0.03560
G1 X108.119 Y74.485 E0.09540
G1 X108.037 Y75.136 E0.03564
G1 X107.762 Y76.870 E0.09540
G1 X107.639 Y77.514 E0.03560
G1 X107.256 Y79.227 E0.09540
G1 X107.093 Y79.862 E0.03561
G1 X106.603 Y81.548 E0.09540
G1 X106.401 Y82.172 E0.03565
G1 X105.806 Y83.824 E0.09540
G1 X105.565 Y84.433 E0.03558
G1 X104.867 Y86.045 E0.09540
G1 X104.588 Y86.638 E0.03564
G1 X103.791 Y88.203 E0.09540
G1 X103.475 Y88.777 E0.03562
G1 X102.581 Y90.289 E0.09542
G1 X102.230 Y90.842 E0.03558
G1 X101.243 Y92.294 E0.09541
G1 X100.858 Y92.825 E0.03563
G1 X99.782 Y94.212 E0.09540
G1 X99.363 Y94.718 E0.03565
G1 X98.202 Y96.035 E0.09540
G1 X97.754 Y96.512 E0.03560
G1 X96.512 Y97.754 E0.09540
G1 X96.035 Y98.202 E0.03560
G1 X94.718 Y99.363 E0.09540
G1 X94.212 Y99.782 E0.03565
G1 X92.825 Y100.858 E0.09540
G1 X92.294 Y101.243 E0.03563
G1 X90.842 Y102.230 E0.09541
G1 X90.289 Y102.581 E0.03559
G1 X88.777 Y103.475 E0.09541
G1 X88.203 Y103.791 E0.03562
G1 X86.638 Y104.588 E0.09540
G1 X86.045 Y104.867 E0.03564
G1 X84.433 Y105.565 E0.09540
G1 X83.824 Y105.806 E0.03558
G1 X82.172 Y106.401 E0.09540
G1 X81.548 Y106.603 E0.03565
G1 X79.862 Y107.093 E0.09540
G1 X79.227 Y107.256 E0.03561
G1 X77.514 Y107.639 E0.09540
G1 X76.870 Y107.762 E0.03560
G1 X75.136 Y108.037 E0.09540
G1 X74.485 Y108.119 E0.03564
G1 X72.737 Y108.284 E0.09540
G1 X72.083 Y108.325 E0.03560
G1 X70.328 Y108.380 E0.09540
G1 X69.672 Y108.380 E0.03565
G1 X67.917 Y108.325 E0.09540
G1 X67.263 Y108.284 E0.03560
G1 X65.515 Y108.119 E0.09540
G1 X64.864 Y108.037 E0.03564
G1 X63.130 Y107.762 E0.09540
G1 X62.489 Y107.640 E0.03548
G1 X60.773 Y107.256 E0.09553
G1 X60.138 Y107.093 E0.03561
G1 X58.452 Y106.603 E0.09540
G1 X57.828 Y106.401 E0.03565
G1 X56.176 Y105.806 E0.09541
G1 X55.567 Y105.565 E0.03558
G1 X53.955 Y104.867 E0.09540
G1 X53.351 Y104.583 E0.03628
G1 X51.797 Y103.791 E0.09477
G1 X51.223 Y103.475 E0.03561
G1 X49.711 Y102.581 E0.09541
G1 X49.158 Y102.230 E0.03560
G1 X47.706 Y101.243 E0.09540
G1 X47.176 Y100.858 E0.03558
G1 X45.788 Y99.782 E0.09545
G1 X45.283 Y99.364 E0.03561
G1 X43.965 Y98.202 E0.09543
G1 X43.488 Y97.754 E0.03560
G1 X42.246 Y96.512 E0.09540
G1 X41.798 Y96.035 E0.03560
G1 X40.636 Y94.717 E0.09546
G1 X40.218 Y94.212 E0.03558
G1 X39.142 Y92.825 E0.09540
G1 X38.757 Y92.294 E0.03563
G1 X37.770 Y90.842 E0.09540
G1 X37.419 Y90.289 E0.03560
G1 X36.525 Y88.777 E0.09540
G1 X36.209 Y88.203 E0.03562
G1 X35.412 Y86.638 E0.09540
G1 X35.133 Y86.045 E0.03565
G1 X34.435 Y84.432 E0.09545
G1 X34.194 Y83.824 E0.03553
G1 X33.599 Y82.172 E0.09544
G1 X33.397 Y81.548 E0.03562
G1 X32.907 Y79.862 E0.09542
G1 X32.744 Y79.227 E0.03559
G1 X32.361 Y77.514 E0.09540
G1 X32.238 Y76.870 E0.03561
G1 X31.963 Y75.136 E0.09540
G1 X31.881 Y74.485 E0.03564
G1 X31.716 Y72.737 E0.09540
G1 X31.675 Y72.083 E0.03559
G1 X31.620 Y70.327 E0.09546
G1 X31.620 Y69.672 E0.03559
G1 X31.675 Y67.917 E0.09540
G1 X31.716 Y67.263 E0.03559
G1 X31.881 Y65.515 E0.09540
G1 X31.963 Y64.864 E0.03564
G1 X32.238 Y63.130 E0.09543
G1 X32.361 Y62.486 E0.03558
G1 X32.744 Y60.772 E0.09545
G1 X32.907 Y60.138 E0.03556
G1 X33.397 Y58.452 E0.09540
G1 X33.599 Y57.828 E0.03565
G1 X34.194 Y56.176 E0.09541
G1 X34.435 Y55.567 E0.03558
G1 X35.133 Y53.955 E0.09540
G1 X35.412 Y53.362 E0.03565
G1 X36.209 Y51.797 E0.09543
G1 X36.525 Y51.223 E0.03559
G1 X37.419 Y49.711 E0.09543
G1 X37.770 Y49.158 E0.03557
G1 X38.757 Y47.706 E0.09542
G1 X39.142 Y47.175 E0.03561
G1 X40.211 Y45.797 E0.09477
G1 X40.637 Y45.282 E0.03628
G1 X41.798 Y43.965 E0.09540
G1 X42.835 Y42.899 E0.08084
G1 E-3.50000 F2400.00000
G1 X50.391 Y50.455 F9000.000
G1 E3.50000 F2400.00000
G1 X51.038 Y49.808 E0.04972 F900.000
G1 X52.343 Y48.657 E0.09455
G1 X53.718 Y47.590 E0.09455
G1 X55.158 Y46.612 E0.09455
G1 X56.656 Y45.726 E0.09455
G1 X58.206 Y44.936 E0.09455
G1 X59.803 Y44.245 E0.09454
G1 X61.440 Y43.656 E0.09455
G1 X63.111 Y43.170 E0.09455
G1 X64.810 Y42.791 E0.09455
G1 X66.528 Y42.519 E0.09455
G1 X68.261 Y42.355 E0.09454
G1 X70.012 Y42.301 E0.09518
G1 X71.739 Y42.355 E0.09392
G1 X73.472 Y42.519 E0.09455 F900.000
G1 X75.190 Y42.791 E0.09455
G1 X76.889 Y43.170 E0.09455
G1 X78.560 Y43.656 E0.09455
G1 X80.197 Y44.245 E0.09455
G1 X81.794 Y44.936 E0.09454
G1 X83.344 Y45.726 E0.09455
G1 X84.842 Y46.612 E0.09455
G1 X86.282 Y47.590 E0.09455
G1 X87.665 Y48.665 E0.09518
G1 X88.962 Y49.808 E0.09392
G1 X90.192 Y51.038 E0.09455
G1 X91.343 Y52.343 E0.09455
G1 X92.410 Y53.718 E0.09455
G1 X93.388 Y55.158 E0.09455
G1 X94.274 Y56.656 E0.09455
G1 X95.058 Y58.196 E0.09392
G1 X95.755 Y59.803 E0.09517
G1 X96.344 Y61.440 E0.09455
G1 X96.830 Y63.111 E0.09455
G1 X97.209 Y64.810 E0.09455
G1 X97.481 Y66.528 E0.09455
G1 X97.645 Y68.261 E0.09455
G1 X97.700 Y70.000 E0.09455
G1 X97.645 Y71.739 E0.09455
G1 X97.481 Y73.472 E0.09455
G1 X97.209 Y75.190 E0.09455
G1 X96.830 Y76.889 E0.09455
G1 X96.344 Y78.560 E0.09455
G1 X95.755 Y80.197 E0.09455
G1 X95.064 Y81.794 E0.09454
G1 X94.274 Y83.345 E0.09455
G1 X93.388 Y84.842 E0.09454
G1 X92.410 Y86.282 E0.09455
G1 X91.343 Y87.657 E0.09455
G1 X90.192 Y88.962 E0.09455
G1 X88.962 Y90.192 E0.09455
G1 X87.657 Y91.343 E0.09455
G1 X86.282 Y92.410 E0.09455
G1 X84.842 Y93.388 E0.09455
G1 X83.345 Y94.274 E0.09455
G1 X81.794 Y95.064 E0.09455
G1 X80.197 Y95.755 E0.09454
G1 X78.560 Y96.344 E0.09455
G1 X76.889 Y96.830 E0.09455
G1 X75.190 Y97.209 E0.09455
G1 X73.472 Y97.481 E0.09455
G1 X71.739 Y97.645 E0.09455
G1 X70.000 Y97.700 E0.09455
G1 X68.261 Y97.645 E0.09455
G1 X66.528 Y97.481 E0.09455
G1 X64.810 Y97.209 E0.09455
G1 X63.111 Y96.830 E0.09455
G1 X61.440 Y96.344 E0.09455
G1 X59.803 Y95.755 E0.09455
G1 X58.196 Y95.058 E0.09517
G1 X56.655 Y94.274 E0.09392
G1 X55.158 Y93.388 E0.09455
G1 X53.718 Y92.410 E0.09455
G1 X52.343 Y91.343 E0.09455
G1 X51.038 Y90.192 E0.09455
G1 X49.808 Y88.962 E0.09455
G1 X48.665 Y87.665 E0.09392
G1 X47.590 Y86.282 E0.09518
G1 X46.612 Y84.842 E0.09455
G1 X45.732 Y83.354 E0.09392
G1 X44.936 Y81.794 E0.09518
G1 X44.245 Y80.197 E0.09454
G1 X43.660 Y78.571 E0.09392
G1 X43.170 Y76.889 E0.09518
G1 X42.791 Y75.190 E0.09454
G1 X42.519 Y73.472 E0.09455
G1 X42.355 Y71.739 E0.09455
G1 X42.300 Y70.000 E0.09455
G1 X42.355 Y68.261 E0.09455
G1 X42.517 Y66.540 E0.09392
G1 X42.791 Y64.810 E0.09518
G1 X43.170 Y63.111 E0.09454
G1 X43.656 Y61.440 E0.09455
G1 X44.245 Y59.803 E0.09455
G1 X44.932 Y58.217 E0.09392
G1 X45.726 Y56.655 E0.09518
G1 X46.612 Y55.158 E0.09454
G1 X47.590 Y53.718 E0.09455
G1 X48.657 Y52.343 E0.09455
G1 X49.808 Y51.038 E0.09455
G1 X50.359 Y50.487 E0.04238
G1 X50.681 Y50.532 F9000.000
G1 X50.667 Y50.795 F9000.000
G1 X51.337 Y50.125 E0.05142 F900.000
G1 X52.621 Y48.993 E0.09306
G1 X53.975 Y47.943 E0.09306
G1 X55.391 Y46.980 E0.09306
G1 X56.865 Y46.108 E0.09306
G1 X58.392 Y45.331 E0.09306
G1 X59.963 Y44.651 E0.09306
G1 X61.575 Y44.070 E0.09306
G1 X63.220 Y43.593 E0.09306
G1 X64.891 Y43.219 E0.09306
G1 X66.583 Y42.951 E0.09306
G1 X68.288 Y42.790 E0.09305
G1 X70.011 Y42.736 E0.09369
G1 X71.712 Y42.790 E0.09244
G1 X73.417 Y42.951 E0.09306 F900.000
G1 X75.109 Y43.219 E0.09306
G1 X76.780 Y43.593 E0.09306
G1 X78.425 Y44.070 E0.09306
G1 X80.037 Y44.651 E0.09306
G1 X81.608 Y45.331 E0.09306
G1 X83.135 Y46.108 E0.09306
G1 X84.609 Y46.980 E0.09306
G1 X86.025 Y47.943 E0.09305
G1 X87.387 Y49.000 E0.09369
G1 X88.663 Y50.125 E0.09244
G1 X89.875 Y51.337 E0.09306
G1 X91.007 Y52.621 E0.09306
G1 X92.057 Y53.975 E0.09306
G1 X93.020 Y55.391 E0.09306
G1 X93.892 Y56.865 E0.09306
G1 X94.664 Y58.381 E0.09244
G1 X95.349 Y59.964 E0.09369
G1 X95.930 Y61.575 E0.09305
G1 X96.407 Y63.220 E0.09306
G1 X96.781 Y64.891 E0.09306
G1 X97.049 Y66.583 E0.09306
G1 X97.210 Y68.288 E0.09306
G1 X97.264 Y70.000 E0.09306
G1 X97.210 Y71.712 E0.09306
G1 X97.049 Y73.417 E0.09306
G1 X96.781 Y75.109 E0.09306
G1 X96.407 Y76.780 E0.09306
G1 X95.930 Y78.425 E0.09306
G1 X95.349 Y80.037 E0.09306
G1 X94.669 Y81.608 E0.09306
G1 X93.892 Y83.135 E0.09306
G1 X93.020 Y84.609 E0.09306
G1 X92.057 Y86.025 E0.09306
G1 X91.007 Y87.379 E0.09306
G1 X89.875 Y88.663 E0.09306
G1 X88.663 Y89.875 E0.09306
G1 X87.379 Y91.007 E0.09306
G1 X86.025 Y92.057 E0.09306
G1 X84.609 Y93.020 E0.09306
G1 X83.135 Y93.892 E0.09306
G1 X81.608 Y94.669 E0.09306
G1 X80.037 Y95.349 E0.09306
G1 X78.425 Y95.930 E0.09306
G1 X76.780 Y96.407 E0.09306
G1 X75.109 Y96.781 E0.09306
G1 X73.417 Y97.049 E0.09306
G1 X71.712 Y97.210 E0.09306
G1 X70.000 Y97.264 E0.09306
G1 X68.288 Y97.210 E0.09306
G1 X66.583 Y97.049 E0.09306
G1 X64.891 Y96.781 E0.09306
G1 X63.220 Y96.407 E0.09306
G1 X61.575 Y95.930 E0.09306
G1 X59.964 Y95.349 E0.09305
G1 X58.381 Y94.664 E0.09369
G1 X56.865 Y93.892 E0.09244
G1 X55.391 Y93.020 E0.09306
G1 X53.975 Y92.057 E0.09306
G1 X52.621 Y91.007 E0.09306
G1 X51.337 Y89.875 E0.09306
G1 X50.125 Y88.663 E0.09306
G1 X49.000 Y87.387 E0.09244
G1 X47.943 Y86.025 E0.09369
G1 X46.980 Y84.609 E0.09305
G1 X46.114 Y83.144 E0.09243
G1 X45.331 Y81.608 E0.09369
G1 X44.651 Y80.037 E0.09305
G1 X44.074 Y78.436 E0.09244
G1 X43.593 Y76.780 E0.09369
G1 X43.219 Y75.109 E0.09305
G1 X42.951 Y73.417 E0.09306
G1 X42.790 Y71.712 E0.09306
G1 X42.736 Y70.000 E0.09306
G1 X42.790 Y68.288 E0.09306
G1 X42.950 Y66.594 E0.09244
G1 X43.219 Y64.891 E0.09369
G1 X43.593 Y63.220 E0.09305
G1 X44.070 Y61.575 E0.09306
G1 X44.651 Y59.963 E0.09306
G1 X45.326 Y58.402 E0.09243
G1 X46.108 Y56.865 E0.09369
G1 X46.980 Y55.391 E0.09305
G1 X47.943 Y53.975 E0.09306
G1 X48.993 Y52.621 E0.09306
G1 X50.125 Y51.337 E0.09306
G1 X50.636 Y50.826 E0.03920
G1 E-3.50000 F2400.00000
G1 X95.170 Y79.249 F9000.000
G1 E3.50000 F2400.00000
G1 X94.944 Y79.876 E0.03624 F900.000
G1 X94.275 Y81.423 E0.09157
G1 X93.510 Y82.925 E0.09157
G1 X92.652 Y84.375 E0.09157
G1 X91.704 Y85.769 E0.09157
G1 X90.672 Y87.101 E0.09157
G1 X89.557 Y88.365 E0.09157
G1 X88.365 Y89.557 E0.09157
G1 X87.101 Y90.672 E0.09157
G1 X85.769 Y91.704 E0.09157
G1 X84.375 Y92.652 E0.09157
G1 X82.925 Y93.510 E0.09157
G1 X81.423 Y94.275 E0.09157
G1 X79.876 Y94.944 E0.09157
G1 X78.290 Y95.515 E0.09157
G1 X76.672 Y95.985 E0.09157
G1 X75.027 Y96.353 E0.09157
G1 X73.362 Y96.617 E0.09157
G1 X71.685 Y96.775 E0.09157
G1 X70.000 Y96.828 E0.09157
G1 X68.315 Y96.775 E0.09157
G1 X66.638 Y96.617 E0.09157
G1 X64.973 Y96.353 E0.09157
G1 X63.328 Y95.985 E0.09157
G1 X61.710 Y95.515 E0.09157
G1 X60.124 Y94.944 E0.09156
G1 X58.567 Y94.270 E0.09220
G1 X57.075 Y93.510 E0.09095
G1 X55.625 Y92.652 E0.09157
G1 X54.231 Y91.704 E0.09158
G1 X52.899 Y90.672 E0.09157
G1 X51.635 Y89.557 E0.09157
G1 X50.443 Y88.365 E0.09157
G1 X49.336 Y87.109 E0.09095
G1 X48.295 Y85.769 E0.09220
G1 X47.348 Y84.375 E0.09156
G1 X46.496 Y82.934 E0.09095
G1 X45.725 Y81.423 E0.09220
G1 X45.056 Y79.876 E0.09156
G1 X44.489 Y78.301 E0.09096
G1 X44.015 Y76.672 E0.09220
G1 X43.647 Y75.027 E0.09156
G1 X43.383 Y73.362 E0.09157
G1 X43.225 Y71.685 E0.09157
G1 X43.172 Y70.000 E0.09157
G1 X43.225 Y68.315 E0.09157
G1 X43.382 Y66.649 E0.09095
G1 X43.647 Y64.973 E0.09220
G1 X44.015 Y63.328 E0.09156
G1 X44.485 Y61.710 E0.09157
G1 X45.056 Y60.124 E0.09157
G1 X45.721 Y58.588 E0.09095
G1 X46.490 Y57.075 E0.09220
G1 X47.348 Y55.625 E0.09156
G1 X48.296 Y54.231 E0.09158
G1 X49.328 Y52.899 E0.09157
G1 X50.443 Y51.635 E0.09157
G1 X51.635 Y50.443 E0.09157
G1 X52.899 Y49.328 E0.09157
G1 X54.231 Y48.296 E0.09157
G1 X55.625 Y47.348 E0.09158
G1 X57.075 Y46.490 E0.09157
G1 X58.577 Y45.725 E0.09157
G1 X60.124 Y45.056 E0.09157
G1 X61.710 Y44.485 E0.09157
G1 X63.328 Y44.015 E0.09157
G1 X64.973 Y43.647 E0.09157
G1 X66.638 Y43.383 E0.09157
G1 X68.315 Y43.225 E0.09156
G1 X70.011 Y43.172 E0.09220
G1 X71.685 Y43.225 E0.09095
G1 X73.362 Y43.383 E0.09157 F900.000
G1 X75.027 Y43.647 E0.09157
G1 X76.672 Y44.015 E0.09157
G1 X78.290 Y44.485 E0.09157
G1 X79.876 Y45.056 E0.09157
G1 X81.423 Y45.725 E0.09157
G1 X82.925 Y46.490 E0.09157
G1 X84.375 Y47.348 E0.09157
G1 X85.769 Y48.295 E0.09156
G1 X87.109 Y49.336 E0.09220
G1 X88.365 Y50.443 E0.09095
G1 X89.557 Y51.635 E0.09157
G1 X90.672 Y52.899 E0.09157
G1 X91.704 Y54.231 E0.09157
G1 X92.652 Y55.625 E0.09158
G1 X93.510 Y57.075 E0.09157
G1 X94.270 Y58.567 E0.09095
G1 X94.944 Y60.124 E0.09220
G1 X95.515 Y61.710 E0.09156
G1 X95.985 Y63.328 E0.09157
G1 X96.353 Y64.973 E0.09157
G1 X96.617 Y66.638 E0.09157
G1 X96.775 Y68.315 E0.09157
G1 X96.828 Y70.000 E0.09157
G1 X96.775 Y71.685 E0.09157
G1 X96.617 Y73.362 E0.09157
G1 X96.353 Y75.027 E0.09157
G1 X95.985 Y76.672 E0.09157
G1 X95.515 Y78.290 E0.09157
G1 X95.185 Y79.206 E0.05289
G1 X86.920 Y76.230 F9000.000
G1 X86.790 Y76.591 E0.02083 F900.000
G1 X86.322 Y77.680 E0.06440
G1 X85.807 Y78.690 E0.06159
G1 X85.231 Y79.666 E0.06157
G1 X84.594 Y80.603 E0.06157
G1 X83.931 Y81.457 E0.05872
G1 X83.150 Y82.348 E0.06440
G1 X82.348 Y83.150 E0.06159
G1 X81.498 Y83.899 E0.06157
G1 X80.603 Y84.594 E0.06157
G1 X79.666 Y85.231 E0.06157
G1 X78.690 Y85.807 E0.06157
G1 X77.680 Y86.322 E0.06159
G1 X76.591 Y86.790 E0.06440
G1 X75.574 Y87.156 E0.05872
G1 X74.486 Y87.472 E0.06159
G1 X73.328 Y87.727 E0.06440
G1 X72.261 Y87.896 E0.05872
G1 X71.133 Y88.003 E0.06157
G1 X70.000 Y88.039 E0.06157
G1 X68.920 Y88.005 E0.05872
G1 X67.740 Y87.896 E0.06440
G1 X66.620 Y87.719 E0.06159
G1 X65.514 Y87.472 E0.06157
G1 X64.426 Y87.156 E0.06157
